icon-themes/colibre_svg/cmd/sc_closemasterview.svg

<svg viewBox="0 0 16 16" xmlns="http://www.w3.org/2000/svg"><path d="m1 2h14v11h-14z" fill="#fff"/><path d="m0 1v13h16v-13zm1 1h14v11h-14zm1 6v1h1v-1zm2 0v1h10v-1zm-2 2v1h1v-1zm2 0v1h10v-1z" fill="#4d82b8"/><path d="m2 4v2h12v-2z" fill="#eac282"/><path d="m11.5 7a4.5 4.5 0 0 0 -4.5 4.5 4.5 4.5 0 0 0 4.5 4.5 4.5 4.5 0 0 0 4.5-4.5 4.5 4.5 0 0 0 -4.5-4.5z" fill="#e68497"/><path d="m9.5 8.9902344a.50005.50005 0 0 0 -.3476562.8574218l1.6464842 1.6464848-1.6464842 1.646484a.50005.50005 0 1 0 .7070312.707031l1.646484-1.646484 1.646485 1.646484a.50005.50005 0 1 0 .707031-.707031l-1.646484-1.646484 1.646484-1.6464848a.50005.50005 0 0 0 -.363281-.8574218.50005.50005 0 0 0 -.34375.1503906l-1.646485 1.646484-1.646484-1.646484a.50005.50005 0 0 0 -.359375-.1503906z" fill="#fff"/></svg>

<svg viewBox="0 0 16 16" xmlns="http://www.w3.org/2000/svg">
  <rect
     style="fill:#ffffff"
     width="14"
     height="11"
     x="1"
     y="2" />
  <path
     style="fill:#4d82b8"
     d="M 0 1 L 0 14 L 16 14 L 16 1 L 0 1 z M 1 2 L 15 2 L 15 13 L 1 13 L 1 2 z M 2 8 L 2 9 L 3 9 L 3 8 L 2 8 z M 4 8 L 4 9 L 14 9 L 14 8 L 4 8 z M 2 10 L 2 11 L 3 11 L 3 10 L 2 10 z M 4 10 L 4 11 L 14 11 L 14 10 L 4 10 z "
     />
  <path
     style="fill:#eac282"
     d="M 2,4 V 6 H 14 V 4 Z"
     />
  <path
     style="fill:#e68497"
     d="M 11.5 7 A 4.5 4.5 0 0 0 7 11.5 A 4.5 4.5 0 0 0 11.5 16 A 4.5 4.5 0 0 0 16 11.5 A 4.5 4.5 0 0 0 11.5 7 z "
     />
  <path
     style="fill:#ffffff"
     d="M 9.5 8.9902344 A 0.50005 0.50005 0 0 0 9.1523438 9.8476562 L 10.798828 11.494141 L 9.1523438 13.140625 A 0.50005 0.50005 0 1 0 9.859375 13.847656 L 11.505859 12.201172 L 13.152344 13.847656 A 0.50005 0.50005 0 1 0 13.859375 13.140625 L 12.212891 11.494141 L 13.859375 9.8476562 A 0.50005 0.50005 0 0 0 13.496094 8.9902344 A 0.50005 0.50005 0 0 0 13.152344 9.140625 L 11.505859 10.787109 L 9.859375 9.140625 A 0.50005 0.50005 0 0 0 9.5 8.9902344 z "
     />
</svg>
